SF_Symbols/arrow.up.backward.and.arrow.down.forward.svg

<?xml version="1.0" encoding="UTF-8"?>
<svg xmlns="http://www.w3.org/2000/svg" xmlns:xlink="http://www.w3.org/1999/xlink" width="24" height="24" viewBox="0 0 24 24" version="1.1">
<g id="surface1">
<path style=" stroke:none;fill-rule:nonzero;fill:rgb(100%,100%,100%);fill-opacity:1;" d="M 1.910156 10.839844 C 2.222656 10.839844 2.476562 10.738281 2.671875 10.535156 C 2.875 10.324219 2.976562 10.0625 2.976562 9.75 L 2.976562 8.765625 L 2.742188 4.675781 L 5.824219 7.921875 L 9.433594 11.554688 C 9.628906 11.757812 9.875 11.859375 10.171875 11.859375 C 10.507812 11.859375 10.785156 11.761719 11.003906 11.566406 C 11.222656 11.363281 11.332031 11.097656 11.332031 10.769531 C 11.332031 10.613281 11.304688 10.464844 11.25 10.324219 C 11.195312 10.183594 11.117188 10.0625 11.015625 9.960938 L 7.394531 6.351562 L 4.148438 3.269531 L 8.25 3.503906 L 9.222656 3.503906 C 9.535156 3.503906 9.796875 3.40625 10.007812 3.210938 C 10.21875 3.007812 10.324219 2.75 10.324219 2.4375 C 10.324219 2.125 10.21875 1.867188 10.007812 1.664062 C 9.804688 1.460938 9.542969 1.359375 9.222656 1.359375 L 2.71875 1.359375 C 2.125 1.359375 1.660156 1.527344 1.324219 1.863281 C 0.996094 2.191406 0.832031 2.652344 0.832031 3.246094 L 0.832031 9.75 C 0.832031 10.054688 0.933594 10.3125 1.136719 10.523438 C 1.339844 10.734375 1.597656 10.839844 1.910156 10.839844 Z M 14.765625 23.71875 L 21.269531 23.71875 C 21.871094 23.71875 22.335938 23.550781 22.664062 23.214844 C 23 22.886719 23.167969 22.425781 23.167969 21.832031 L 23.167969 15.328125 C 23.167969 15.023438 23.0625 14.765625 22.851562 14.554688 C 22.648438 14.34375 22.390625 14.238281 22.078125 14.238281 C 21.773438 14.238281 21.519531 14.34375 21.316406 14.554688 C 21.113281 14.757812 21.011719 15.015625 21.011719 15.328125 L 21.011719 16.3125 L 21.257812 20.402344 L 18.164062 17.15625 L 14.566406 13.523438 C 14.371094 13.320312 14.121094 13.21875 13.816406 13.21875 C 13.488281 13.21875 13.210938 13.320312 12.984375 13.523438 C 12.765625 13.71875 12.65625 13.980469 12.65625 14.308594 C 12.65625 14.464844 12.683594 14.613281 12.738281 14.753906 C 12.792969 14.894531 12.875 15.015625 12.984375 15.117188 L 16.59375 18.726562 L 19.851562 21.808594 L 15.75 21.574219 L 14.765625 21.574219 C 14.453125 21.574219 14.191406 21.671875 13.980469 21.867188 C 13.769531 22.070312 13.664062 22.328125 13.664062 22.640625 C 13.664062 22.953125 13.769531 23.210938 13.980469 23.414062 C 14.191406 23.617188 14.453125 23.71875 14.765625 23.71875 Z M 14.765625 23.71875 "/>
</g>
</svg>

<svg xmlns="http://www.w3.org/2000/svg" width="24" height="24"><path style="stroke:none;fill-rule:nonzero;fill:#fff;fill-opacity:1" d="M1.91 10.84c.313 0 .567-.102.762-.305.203-.21.305-.473.305-.785v-.984l-.235-4.09 3.082 3.246 3.61 3.633c.191.203.46.312.738.304.336 0 .613-.097.832-.293.219-.203.328-.468.328-.796 0-.157-.027-.305-.082-.446a1.02 1.02 0 0 0-.234-.363L7.395 6.35 4.148 3.27l4.102.234h.973c.312 0 .574-.098.785-.293.21-.203.316-.461.316-.773 0-.313-.105-.57-.316-.774-.203-.203-.465-.305-.785-.305H2.719c-.594 0-1.059.168-1.395.504-.328.328-.492.79-.492 1.383V9.75c0 .305.102.563.305.773.203.211.46.317.773.317Zm12.856 12.879h6.504c.601 0 1.066-.168 1.394-.504.336-.328.504-.79.504-1.383v-6.504c0-.305-.105-.562-.316-.773-.2-.211-.48-.325-.774-.317-.305 0-.558.106-.762.317-.203.203-.304.46-.304.773v.985l.246 4.09-3.094-3.247-3.598-3.633a1.002 1.002 0 0 0-.75-.304c-.328 0-.605.101-.832.304-.218.196-.328.457-.328.786 0 .156.028.304.082.445.055.14.137.262.246.363l3.61 3.61 3.258 3.082-4.102-.235h-.984c-.313 0-.575.098-.786.293-.21.203-.316.461-.316.774 0 .312.106.57.316.773.211.203.473.305.786.305Zm0 0"/></svg>
